src/icons/service-azure-functions.svg

<svg viewBox="0 0 32 32" fill="none" xmlns="http://www.w3.org/2000/svg">
<path d="M31.7984 16.1953C32.0909 15.9028 32.0419 15.3453 31.7984 15.0418L30.2549 13.4983L23.3549 6.80531C23.0624 6.51281 22.6074 6.51281 22.2549 6.80531C21.9624 7.09781 21.8489 7.65531 22.2549 7.95881L29.5049 15.0578C29.7974 15.3503 29.7974 15.9078 29.5049 16.2113L22.0999 23.5543C21.8074 23.8468 21.8074 24.4043 22.0999 24.7078C22.3924 25.0003 22.9499 24.9513 23.1999 24.7078L30.0999 17.8678L31.7984 16.1953ZM0.201418 16.1953C-0.0910818 15.9028 -0.0420818 15.3453 0.201418 15.0418L1.74492 13.4983L8.64492 6.80531C8.93742 6.51281 9.39242 6.51281 9.74492 6.80531C10.0374 7.09781 10.1509 7.65531 9.74492 7.95881L2.64492 15.0588C2.35242 15.3513 2.35242 15.9088 2.64492 16.2123L9.89492 23.5553C10.1874 23.8478 10.1874 24.4053 9.89492 24.7088C9.60242 25.0013 9.04492 24.9523 8.79492 24.7088L1.74492 17.9703L0.201418 16.1953Z" fill="#3999C6"/>
<path d="M17.2914 11.2075L23.7899 1.25H14.0424L8.79492 16.05L15.1949 16.0985L10.1914 30.752L23.9999 11.209L17.2914 11.2075Z" fill="#FCD116"/>
<path opacity="0.3" d="M24.0009 11.2075H17.2909L23.7899 1.25H18.6884L13.2949 13.547L19.6949 13.5955L10.1914 30.7455L24.0009 11.2075Z" fill="#FF8C00"/>
</svg>

<svg viewBox="0 0 32 32" fill="none" xmlns="http://www.w3.org/2000/svg"><path d="M31.798 16.195c.293-.292.244-.85 0-1.153l-1.543-1.544-6.9-6.693c-.293-.292-.748-.292-1.1 0-.293.293-.406.85 0 1.154l7.25 7.099c.292.292.292.85 0 1.153L22.1 23.554c-.293.293-.293.85 0 1.154.292.292.85.243 1.1 0l6.9-6.84 1.698-1.673zm-31.597 0c-.292-.292-.243-.85 0-1.153l1.544-1.544 6.9-6.693c.292-.292.747-.292 1.1 0 .292.293.406.85 0 1.154l-7.1 7.1c-.293.292-.293.85 0 1.153l7.25 7.343c.292.293.292.85 0 1.154-.293.292-.85.243-1.1 0l-7.05-6.739L.2 16.195z" fill="#3999C6"/><path d="M17.291 11.207 23.79 1.25h-9.748l-5.247 14.8 6.4.049-5.004 14.653L24 11.209l-6.709-.002z" fill="#FCD116"/><path opacity=".3" d="M24 11.207h-6.71l6.5-9.957h-5.102l-5.393 12.297 6.4.048-9.504 17.15 13.81-19.538z" fill="#FF8C00"/></svg>
